icons/svg/minus-network.svg

﻿<?xml version="1.0" encoding="utf-8"?>
<!DOCTYPE svg PUBLIC "-//W3C//DTD SVG 1.1//EN" "http://www.w3.org/Graphics/SVG/1.1/DTD/svg11.dtd">
<svg xmlns="http://www.w3.org/2000/svg" xmlns:xlink="http://www.w3.org/1999/xlink" version="1.1" baseProfile="full" width="24" height="24" viewBox="0 0 24.00 24.00" enable-background="new 0 0 24.00 24.00" xml:space="preserve">
	<path fill="#000000" fill-opacity="1" stroke-width="0.2" stroke-linejoin="round" d="M 16,10.9995L 16,8.99951L 8.00001,8.99951L 8.00001,10.9995L 16,10.9995 Z M 17,3C 18.103,3 19,3.896 19,5L 19,15C 19,16.104 18.103,17 17,17L 13,17L 13,19L 14,19C 14.5523,19 15,19.4477 15,20L 22,20L 22,22L 15,22C 15,22.5523 14.5523,23 14,23L 10,23C 9.44772,23 9.00001,22.5523 9.00001,22L 2,22L 2,20L 9.00001,20C 9.00001,19.4477 9.44772,19 10,19L 11,19L 11,17L 7,17C 5.894,17 5,16.104 5,15L 5,5C 5,3.896 5.894,3 7,3L 17,3 Z "/>
</svg>

<svg xmlns="http://www.w3.org/2000/svg" version="1.1" baseProfile="full" width="24" height="24" viewBox="0 0 24.00 24.00" xml:space="preserve"><path fill="#000" fill-opacity="1" stroke-width=".2" stroke-linejoin="round" d="M16 11V9H8v2h8zm1-8c1.103 0 2 .896 2 2v10c0 1.104-.897 2-2 2h-4v2h1c.552 0 1 .448 1 1h7v2h-7c0 .552-.448 1-1 1h-4c-.552 0-1-.448-1-1H2v-2h7c0-.552.448-1 1-1h1v-2H7c-1.106 0-2-.896-2-2V5c0-1.104.894-2 2-2h10z"/></svg>
